X:1
T:Kismet Rag
T:Kismet Rag.
T:By  SCOTT  JOPLIN and SCOTT  HAYDEN.
T:Public Domain
T:Public Domain
T:Public Domain
T:Public Domain
C:Scott Joplin and Scott Hayden
Z:Public Domain
%%score { ( 1 3 ) | 2 }
L:1/8
Q:1/4=76
M:2/4
K:C
V:1 treble nm="Piano" snm="Pno."
V:3 treble 
V:2 bass 
V:1
"^Not fast.""^INTRO." G | c2- c/G/c/e/ | g2- ge | d/e/d/c/ B/c/B/A/ | G z || [GBdg][Bgb] |: %6
!f! [cgc']/g/a/[cec']/- [cec']/[cea]e/ | [Aea]/c/e/[Gceg]/- [Gceg]/[Gce]c/ | d/c/d/e/ d/c/A/G/ | %9
 [Cc][ce]/g/ [cda][dgb] | [cgc']/g/a/[cec']/- [cec']/[cea]e/ | [Aea]/c/e/[G^cg]/- [Gcg]/[Gce]c/ | %12
 d/^c/d/c/ d/^d/e/^f/ | g !^![d=fb]!^![dfa]!^![dfg] | [cgc']/g/a/[cec']/- [cec']/[cea]e/ | %15
 [Aea]/c/e/[Gceg]/- [Gceg]/[Gce]c/ | d/c/d/e/ d/c/A/G/ | [Gc]2- [Gc]/[Gce][Gc]/ | %18
 d/c/d/e/ d/c/A/G/ | [Gc]/e/g/[cea]/- [cea]/g/e/c/ | [^FA][Fc] [=FBd]/[FBe][EGc]/- |1 %21
 [EGc][ce]/g/ [cda][dgb] :|2 ((([EGc]2 [cegc']))) z |:[K:G] B/^A/B/e/- e/d/B/G/ | %24
 ^C/E/A/B/- B/A/E/C/ | D/F/A/[DFc]/- [DFc]/c/B/A/ | [DGBd]2- [DGBd]D | G/F/E/D/ G/F/E/^E/ | %28
 F[Fce]/[Fce]/- [Fce]2 | A/F/E/D/ A/F/E/F/ | G[GBe]/[GBe]/- [GBe]2 | B/^A/B/e/- e/d/B/G/ | %32
 ^C/E/A/B/- B/A/E/C/ | D/F/A/[DFc]/- [DFc]/c/B/A/ | [DGBd]4 | z B/e/- e/B/^G/E/ | %36
 [EA][Ac] [G_Bg]2 | [G=Bd]/B/G/A/ [^CGB][=CA] |1 [B,DG]2- [B,DG] z :|2 [B,DG] [Bdg][cda][dgb] || %40
[K:C] [gc']/g/a/[cec']/- [cec']/[cea]e/ | [Aea]/c/e/[Gceg]/- [Gceg]/[Gce]c/ | d/c/d/e/ d/c/A/G/ | %43
 [Cc][ce]/g/ [cda][dgb] | [cgc']/g/a/[cec']/- [cec']/[cea]e/ | [Aea]/c/e/[Gceg]/- [Gceg]/[Gce]c/ | %46
 d/^c/d/c/ d/^d/e/^f/ | g !^![d=fb]!^![dfa]!^![dfg] | [cgc']/g/a/[cec']/- [cec']/[cea]e/ | %49
 [Aea]/c/e/[Gceg]/- [Gceg]/[Gce]c/ | d/c/d/e/ d/c/A/G/ | [Gc]2- [Gc]/[Gce][Gc]/ | %52
 d/c/d/e/ d/c/A/G/ | [Gc]/e/g/[cea]/- [cea]/g/e/c/ | [^FA][Fc] [=FBd]/[FBe][EGc]/- | %55
 [EGc]2 [Aa][_B_b] |:[K:F] [cc'] [dfad']2 [cfac'] | [=Bfa][Bg]/[Bfa]/- [Bfa]/g/f/d/ | %58
 [_Bea][Beg]/[Bea]/- [Bea]/e/[cg] | c2- cc | f/e/d/c/ f/e/d/c/ | eE/[GB]/- [GB]>c | %62
 e/d/c/B/ e/d/c/B/ | [Ad][Ac] [Bb][=B=b] | [cc'] [dfad']2 [cfac'] | %65
 [=Bfa][Bg]/[Bfa]/- [Bfa]/g/f/d/ | [_Bea][Beg]/[Bea]/- [Bea]/e/[cg] | c2- c[Ac] | %68
 [D^Fd][DFc]/[DFd]/- d/c/A/c/ | [DGB][D^Fc] [DGd][=F=f] | [FAd]/c/A/F/- [=B,F][_B,EG] |1 %71
 [A,CF][Aa] [Bb][=B=b] :|2 [A,CF] z [FAf][Gg] |:[K:C] [cc']/e/g/[Aa]/- [Aa]/g/[^A^a]/g/ | %74
 [Bb]/f/g/[Aa]/- [Aa]/g/[Bb]/g/ | [cc']/e/g/[Aa]/- [Aa]/g/[^A^a]/g/ | %76
 [Bb]/f/g/[Aa]/- [Aa]/g/[Bb]/g/ | [cc']/e/g/[cc']/- [cc']/g/[cc']/g/ | %78
 [cc']/f/a/[cc']/- [cc']/f/[cc'] | e/d/c/d/ ed | [GBg] [Gg][Aa][Bb] | %81
 [cc']/e/g/[Aa]/- [Aa]/g/[^A^a]/g/ | [Bb]/f/g/[Aa]/- [Aa]/g/[Bb]/g/ | %83
 [cc']/e/g/[Aa]/- [Aa]/g/[^A^a]/g/ | [Bb]/f/g/[Aa]/- [Aa]/g/[Bb]/g/ | %85
 [cc']/e/g/[cc']/- [cc']/g/[cc']/g/ | [cc']/f/a/[cc']/- [cc']/a/c' | g/c/e/f/- f/A/[FGB] |1 %88
 [EGc][Gg][Aa][Bb] :|2 [EGc]2 [cegc'] |] %90
V:2
 G, | C2- C/G,/C/E/ |[I:staff -1] G2- GE | D/E/D/C/[I:staff +1] B,/C/B,/A,/ | G, z || %5
 [G,,G,][F,,F,] |: [E,,E,][G,CE] G,,[G,CE] | C,[G,CE] [_B,,_B,][G,B,CE] | %8
 [A,,A,][F,,F,] [D,,D,][^D,,^D,] | [E,,E,][G,,G,] [^F,,^F,][=F,,=F,] | [E,,E,][G,CE] G,,[G,CE] | %11
 C,[G,CE] [A,,A,][G,,G,] | [^F,,^F,][F,A,CD] [D,,D,][A,CD] | %13
 [G,B,D] !^![G,,G,]!^![A,,A,]!^![B,,B,] | [C,C][G,CE] G,,[G,CE] | C,[G,CE] [_B,,_B,][G,B,CE] | %16
 [A,,A,][F,,F,] [D,,D,][^D,,^D,] | [E,,E,][G,CE] [C,C][_B,,_B,] | [A,,A,][F,,F,] [D,,D,][^D,,^D,] | %19
 [E,,E,][G,CE] G,,[G,CE] | [D,D]2 [G,,G,]2 |1 [C,C][G,,G,] [^F,,^F,][=F,,=F,] :|2 %22
 [C,C][G,,G,][C,,C,] z |:[K:G] G,,[D,G,B,] D,,[D,G,B,] | A,,[G,A,^C] E,,[G,A,] | %25
 F,,[D,F,C] D,,[D,F,C] | G,,[D,G,B,] D,,[D,G,B,] | G,,[D,G,B,] [B,,B,][_B,,_B,] | %28
 [A,,A,][D,F,C] [D,,D,][D,F,C] | [A,,A,][D,F,C] [D,,D,][D,F,C] | [G,,G,][D,G,B,] D,,[D,G,B,] | %31
 G,,[D,G,B,] D,,[D,G,B,] | A,,[G,A,^C] E,,[G,A,] | F,,[D,F,C] D,,[D,F,C] | %34
 [G,,G,][D,G,B,] [F,,F,][=F,,=F,] | [E,,E,][E,^G,D] [E,,E,][D,,D,] | [C,,C,][E,,E,] [_E,,_E,]2 | %37
 [D,,D,][D,G,B,] [E,,E,][F,,F,] |1 [G,,G,][D,,D,] [E,,E,][F,,F,] :|2 %39
 [G,,G,] [G,,G,][F,,F,][=F,,=F,] ||[K:C] [E,,E,][G,CE] G,,[G,CE] | C,[G,CE] [_B,,_B,][G,B,CE] | %42
 [A,,A,][F,,F,] [D,,D,][^D,,^D,] | [E,,E,][G,,G,] [^F,,^F,][=F,,=F,] | [E,,E,][G,CE] G,,[G,CE] | %45
 C,[G,CE] [A,,A,][G,,G,] | [^F,,^F,][F,A,CD] [D,,D,][A,CD] | %47
 [G,B,D] !^![G,,G,]!^![A,,A,]!^![B,,B,] | [C,C][G,CE] G,,[G,CE] | C,[G,CE] [_B,,_B,][G,B,CE] | %50
 [A,,A,][F,,F,] [D,,D,][^D,,^D,] | [E,,E,][G,CE] [C,C][_B,,_B,] | [A,,A,][F,,F,] [D,,D,][^D,,^D,] | %53
 [E,,E,][G,CE] G,,[G,CE] | [D,D]2 [G,,G,]2 | [C,C]2 [F,,F,][G,,G,] |: %56
[K:F] [A,,A,][F,,F,] [E,,E,][_E,,_E,] | [D,,D,][G,=B,F] G,,[G,B,F] | C,[G,B,CE] C,[B,,B,] | %59
 [A,,A,][A,CF] C,[A,CF] | F,[A,CF] C,[A,CF] | G,[B,C] C,[B,CE] | G,[B,CE] C,[B,CE] | %63
 F,[A,CF] [G,,G,][^G,,^G,] | [A,,A,][F,,F,] [E,,E,][_E,,_E,] | [D,,D,][G,=B,F] G,,[G,B,F] | %66
 C,[G,_B,CE] C,[B,,B,] | [A,,A,][F,,F,] [E,,E,][_E,,_E,] | [D,,D,][D,^F,C] A,,[D,F,C] | %69
 G,,A,, B,,=B,, | C,[F,A,C] D,C, |1 [F,,F,][F,,F,] [G,,G,][^G,,^G,] :|2 [F,,F,] z !>![F,,,F,,] z |: %73
[K:C] [C,C][G,CE] [C,C][^C,^C] | [D,D][G,B,F] [G,,G,][G,B,F] | [C,C][G,CE] [C,C][^C,^C] | %76
 [D,D][G,B,F] [G,,G,][G,B,F] | [C,C][G,CE] [_B,,_B,][G,CE] | [A,,A,][A,CF] [F,,F,][A,CF] | %79
 [D,,D,][A,CD] [D,,D,][A,CD] | [G,,G,] [E,E][_E,_E][D,D] | [C,C][G,CE] [C,C][^C,^C] | %82
 [D,D][G,B,F] [G,,G,][G,B,F] | [C,C][G,CE] [C,C][^C,^C] | [D,D][G,B,F] [G,,G,][G,B,F] | %85
 [C,C][G,CE] [_B,,_B,][G,CE] | [A,,A,][A,CF] [^F,,^F,][A,C^D] | [G,,G,][G,CE] G,,[G,D] |1 %88
 [C,C] [E,E][_E,_E][D,D] :|2 [C,C][G,,G,][C,,C,] |] %90
V:3
 x | x4 | x4 | x4 | x2 || x2 |: x4 | x4 | (F3 C) | x4 | x4 | x4 | x4 | x4 | x4 | x4 | (F3 C) | x4 | %18
 (F3 C) | x4 | x4 |1 x4 :|2 x4 |:[K:G] x4 | x4 | x4 | x4 | x4 | x4 | x4 | x4 | x4 | x4 | x4 | x4 | %35
 x4 | x4 | x4 |1 x4 :|2 x4 ||[K:C] x4 | x4 | F3 C | x4 | x4 | x4 | x4 | x4 | x4 | x4 | F3 C | x4 | %52
 F3 C | x4 | x4 | x4 |:[K:F] x4 | x4 | x4 | x4 | x4 | x4 | x4 | x4 | x4 | x4 | x4 | x4 | x2 [DF]2 | %69
 x4 | x4 |1 x4 :|2 x4 |:[K:C] x4 | x4 | x4 | x4 | x4 | x4 | ^F2 [Fc]2 | x4 | x4 | x4 | x4 | x4 | %85
 x4 | x4 | x4 |1 x4 :|2 x3 |] %90

